Catalina-dark/status/16/btsync-gui-4.svg

<?xml version="1.0" encoding="UTF-8" standalone="no"?>
<svg
   xmlns:dc="http://purl.org/dc/elements/1.1/"
   xmlns:cc="http://creativecommons.org/ns#"
   xmlns:rdf="http://www.w3.org/1999/02/22-rdf-syntax-ns#"
   xmlns:svg="http://www.w3.org/2000/svg"
   xmlns="http://www.w3.org/2000/svg"
   xmlns:xlink="http://www.w3.org/1999/xlink"
   xmlns:sodipodi="http://sodipodi.sourceforge.net/DTD/sodipodi-0.dtd"
   xmlns:inkscape="http://www.inkscape.org/namespaces/inkscape"
   width="16"
   height="16"
   viewBox="0 0 12 12"
   version="1.1"
   id="svg5"
   sodipodi:docname="btsync-gui-4.svg"
   inkscape:version="0.92.3 (2405546, 2018-03-11)">
  <metadata
     id="metadata11">
    <rdf:RDF>
      <cc:Work
         rdf:about="">
        <dc:format>image/svg+xml</dc:format>
        <dc:type
           rdf:resource="http://purl.org/dc/dcmitype/StillImage" />
        <dc:title></dc:title>
      </cc:Work>
    </rdf:RDF>
  </metadata>
  <defs
     id="defs9">
    <filter
       style="color-interpolation-filters:sRGB"
       id="filter7554">
      <feBlend
         mode="darken"
         in2="BackgroundImage"
         id="feBlend7556" />
    </filter>
    <filter
       id="filter7554-5"
       style="color-interpolation-filters:sRGB">
      <feBlend
         id="feBlend7556-4"
         in2="BackgroundImage"
         mode="darken" />
    </filter>
    <filter
       style="color-interpolation-filters:sRGB"
       id="filter7554-6">
      <feBlend
         id="feBlend7556-6"
         in2="BackgroundImage"
         mode="darken" />
    </filter>
    <linearGradient
       gradientTransform="translate(-1,-2)"
       gradientUnits="userSpaceOnUse"
       xlink:href="#linearGradient3678"
       id="linearGradient2868"
       y2="19"
       x2="8.9254236"
       y1="5.9997859"
       x1="8.9254236" />
    <linearGradient
       id="linearGradient3678">
      <stop
         offset="0"
         style="stop-color:#ffffff;stop-opacity:1"
         id="stop3680" />
      <stop
         offset="1"
         style="stop-color:#e6e6e6;stop-opacity:1"
         id="stop3682" />
    </linearGradient>
    <linearGradient
       gradientTransform="translate(-2,-1)"
       gradientUnits="userSpaceOnUse"
       xlink:href="#linearGradient3678"
       id="linearGradient2393"
       y2="21"
       x2="9"
       y1="3"
       x1="9" />
    <linearGradient
       x1="14"
       y1="3"
       x2="14"
       y2="21"
       id="linearGradient2398"
       xlink:href="#linearGradient3587-6-5-3"
       gradientUnits="userSpaceOnUse"
       gradientTransform="translate(-1.0001235,-5)" />
    <linearGradient
       id="linearGradient3587-6-5-3">
      <stop
         id="stop3589-9-2-0"
         style="stop-color:#000000;stop-opacity:1"
         offset="0" />
      <stop
         id="stop3591-7-4-7"
         style="stop-color:#363636;stop-opacity:1"
         offset="1" />
    </linearGradient>
    <linearGradient
       x1="66.09668"
       y1="9.3638258"
       x2="66.09668"
       y2="27.363825"
       id="linearGradient2395"
       xlink:href="#linearGradient3587-6-5-3"
       gradientUnits="userSpaceOnUse"
       gradientTransform="translate(-52.096803,-11.363826)" />
    <linearGradient
       x1="4.9554448"
       y1="2.6841583"
       x2="4.9554448"
       y2="13.496136"
       id="linearGradient7390"
       xlink:href="#linearGradient3587-6-5-3"
       gradientUnits="userSpaceOnUse" />
    <linearGradient
       x1="7.9109159"
       y1="4.5762329"
       x2="7.9109159"
       y2="11.649005"
       id="linearGradient7392"
       xlink:href="#linearGradient3587-6-5-3"
       gradientUnits="userSpaceOnUse" />
    <linearGradient
       x1="10.186814"
       y1="2.7742527"
       x2="10.186814"
       y2="13.317288"
       id="linearGradient7394"
       xlink:href="#linearGradient3587-6-5-3"
       gradientUnits="userSpaceOnUse" />
    <linearGradient
       x1="13.917011"
       y1="0.88217813"
       x2="13.917011"
       y2="15.183488"
       id="linearGradient7396"
       xlink:href="#linearGradient3587-6-5-3"
       gradientUnits="userSpaceOnUse" />
    <linearGradient
       id="linearGradient5263">
      <stop
         id="stop5265"
         style="stop-color:#a0d5ff;stop-opacity:1"
         offset="0" />
      <stop
         id="stop5267"
         style="stop-color:#a0d5ff;stop-opacity:1"
         offset="1" />
    </linearGradient>
    <filter
       id="filter7554-7"
       style="color-interpolation-filters:sRGB">
      <feBlend
         id="feBlend7556-0"
         in2="BackgroundImage"
         mode="darken" />
    </filter>
    <filter
       id="filter7554-35"
       style="color-interpolation-filters:sRGB">
      <feBlend
         id="feBlend7556-35"
         in2="BackgroundImage"
         mode="darken" />
    </filter>
    <filter
       style="color-interpolation-filters:sRGB"
       id="filter7554-5-9">
      <feBlend
         mode="darken"
         in2="BackgroundImage"
         id="feBlend7556-4-5" />
    </filter>
    <filter
       id="filter7554-6-3"
       style="color-interpolation-filters:sRGB">
      <feBlend
         mode="darken"
         in2="BackgroundImage"
         id="feBlend7556-6-2" />
    </filter>
    <filter
       style="color-interpolation-filters:sRGB"
       id="filter7554-2">
      <feBlend
         mode="darken"
         in2="BackgroundImage"
         id="feBlend7556-9" />
    </filter>
    <filter
       style="color-interpolation-filters:sRGB"
       id="filter7554-29">
      <feBlend
         mode="darken"
         in2="BackgroundImage"
         id="feBlend7556-3" />
    </filter>
    <filter
       style="color-interpolation-filters:sRGB"
       id="filter7554-0">
      <feBlend
         mode="darken"
         in2="BackgroundImage"
         id="feBlend7556-5" />
    </filter>
    <filter
       style="color-interpolation-filters:sRGB"
       id="filter7554-3">
      <feBlend
         mode="darken"
         in2="BackgroundImage"
         id="feBlend7556-48" />
    </filter>
    <filter
       id="filter7554-5-3"
       style="color-interpolation-filters:sRGB">
      <feBlend
         id="feBlend7556-4-4"
         in2="BackgroundImage"
         mode="darken" />
    </filter>
    <filter
       style="color-interpolation-filters:sRGB"
       id="filter7554-6-8">
      <feBlend
         id="feBlend7556-6-4"
         in2="BackgroundImage"
         mode="darken" />
    </filter>
    <filter
       id="filter7554-7-7"
       style="color-interpolation-filters:sRGB">
      <feBlend
         id="feBlend7556-0-2"
         in2="BackgroundImage"
         mode="darken" />
    </filter>
    <filter
       id="filter7554-61"
       style="color-interpolation-filters:sRGB">
      <feBlend
         id="feBlend7556-98"
         in2="BackgroundImage"
         mode="darken" />
    </filter>
    <filter
       style="color-interpolation-filters:sRGB"
       id="filter7554-5-8">
      <feBlend
         mode="darken"
         in2="BackgroundImage"
         id="feBlend7556-4-6" />
    </filter>
    <filter
       id="filter7554-6-84"
       style="color-interpolation-filters:sRGB">
      <feBlend
         mode="darken"
         in2="BackgroundImage"
         id="feBlend7556-6-1" />
    </filter>
    <filter
       style="color-interpolation-filters:sRGB"
       id="filter7554-7-71">
      <feBlend
         mode="darken"
         in2="BackgroundImage"
         id="feBlend7556-0-3" />
    </filter>
    <filter
       style="color-interpolation-filters:sRGB"
       id="filter7554-35-2">
      <feBlend
         mode="darken"
         in2="BackgroundImage"
         id="feBlend7556-35-1" />
    </filter>
    <filter
       id="filter7554-5-9-1"
       style="color-interpolation-filters:sRGB">
      <feBlend
         id="feBlend7556-4-5-9"
         in2="BackgroundImage"
         mode="darken" />
    </filter>
    <filter
       style="color-interpolation-filters:sRGB"
       id="filter7554-6-3-8">
      <feBlend
         id="feBlend7556-6-2-4"
         in2="BackgroundImage"
         mode="darken" />
    </filter>
    <filter
       id="filter7554-2-7"
       style="color-interpolation-filters:sRGB">
      <feBlend
         id="feBlend7556-9-4"
         in2="BackgroundImage"
         mode="darken" />
    </filter>
    <filter
       id="filter7554-29-9"
       style="color-interpolation-filters:sRGB">
      <feBlend
         id="feBlend7556-3-2"
         in2="BackgroundImage"
         mode="darken" />
    </filter>
    <filter
       id="filter7554-0-9"
       style="color-interpolation-filters:sRGB">
      <feBlend
         id="feBlend7556-5-0"
         in2="BackgroundImage"
         mode="darken" />
    </filter>
    <filter
       id="filter7554-3-6"
       style="color-interpolation-filters:sRGB">
      <feBlend
         id="feBlend7556-48-5"
         in2="BackgroundImage"
         mode="darken" />
    </filter>
    <filter
       style="color-interpolation-filters:sRGB"
       id="filter7554-5-3-1">
      <feBlend
         mode="darken"
         in2="BackgroundImage"
         id="feBlend7556-4-4-5" />
    </filter>
    <filter
       id="filter7554-6-8-6"
       style="color-interpolation-filters:sRGB">
      <feBlend
         mode="darken"
         in2="BackgroundImage"
         id="feBlend7556-6-4-2" />
    </filter>
    <filter
       style="color-interpolation-filters:sRGB"
       id="filter7554-7-7-1">
      <feBlend
         mode="darken"
         in2="BackgroundImage"
         id="feBlend7556-0-2-4" />
    </filter>
    <filter
       id="filter7554-22"
       style="color-interpolation-filters:sRGB">
      <feBlend
         id="feBlend7556-01"
         in2="BackgroundImage"
         mode="darken" />
    </filter>
    <filter
       style="color-interpolation-filters:sRGB"
       id="filter7554-5-6">
      <feBlend
         mode="darken"
         in2="BackgroundImage"
         id="feBlend7556-4-2" />
    </filter>
    <filter
       id="filter7554-6-6"
       style="color-interpolation-filters:sRGB">
      <feBlend
         mode="darken"
         in2="BackgroundImage"
         id="feBlend7556-6-16" />
    </filter>
    <filter
       style="color-interpolation-filters:sRGB"
       id="filter7554-7-6">
      <feBlend
         mode="darken"
         in2="BackgroundImage"
         id="feBlend7556-0-1" />
    </filter>
    <filter
       style="color-interpolation-filters:sRGB"
       id="filter7554-35-9">
      <feBlend
         mode="darken"
         in2="BackgroundImage"
         id="feBlend7556-35-4" />
    </filter>
    <filter
       id="filter7554-5-9-0"
       style="color-interpolation-filters:sRGB">
      <feBlend
         id="feBlend7556-4-5-1"
         in2="BackgroundImage"
         mode="darken" />
    </filter>
    <filter
       style="color-interpolation-filters:sRGB"
       id="filter7554-6-3-7">
      <feBlend
         id="feBlend7556-6-2-3"
         in2="BackgroundImage"
         mode="darken" />
    </filter>
    <filter
       id="filter7554-2-0"
       style="color-interpolation-filters:sRGB">
      <feBlend
         id="feBlend7556-9-3"
         in2="BackgroundImage"
         mode="darken" />
    </filter>
    <filter
       id="filter7554-29-5"
       style="color-interpolation-filters:sRGB">
      <feBlend
         id="feBlend7556-3-0"
         in2="BackgroundImage"
         mode="darken" />
    </filter>
    <filter
       id="filter7554-0-4"
       style="color-interpolation-filters:sRGB">
      <feBlend
         id="feBlend7556-5-6"
         in2="BackgroundImage"
         mode="darken" />
    </filter>
    <filter
       id="filter7554-3-8"
       style="color-interpolation-filters:sRGB">
      <feBlend
         id="feBlend7556-48-4"
         in2="BackgroundImage"
         mode="darken" />
    </filter>
    <filter
       style="color-interpolation-filters:sRGB"
       id="filter7554-5-3-0">
      <feBlend
         mode="darken"
         in2="BackgroundImage"
         id="feBlend7556-4-4-0" />
    </filter>
    <filter
       id="filter7554-6-8-64"
       style="color-interpolation-filters:sRGB">
      <feBlend
         mode="darken"
         in2="BackgroundImage"
         id="feBlend7556-6-4-9" />
    </filter>
    <filter
       style="color-interpolation-filters:sRGB"
       id="filter7554-7-7-9">
      <feBlend
         mode="darken"
         in2="BackgroundImage"
         id="feBlend7556-0-2-0" />
    </filter>
  </defs>
  <sodipodi:namedview
     pagecolor="#ffffff"
     bordercolor="#666666"
     borderopacity="1"
     objecttolerance="10"
     gridtolerance="10"
     guidetolerance="10"
     inkscape:pageopacity="0"
     inkscape:pageshadow="2"
     inkscape:window-width="1920"
     inkscape:window-height="1017"
     id="namedview7"
     showgrid="true"
     inkscape:zoom="32"
     inkscape:cx="4.4139422"
     inkscape:cy="8.5099054"
     inkscape:window-x="0"
     inkscape:window-y="30"
     inkscape:window-maximized="1"
     inkscape:current-layer="svg5"
     units="px"
     showguides="true"
     inkscape:guide-bbox="true"
     inkscape:measure-start="4.75693,5.79008"
     inkscape:measure-end="4,5.21492">
    <inkscape:grid
       type="xygrid"
       id="grid816" />
    <sodipodi:guide
       position="8.4323011,6.75"
       orientation="0,1"
       id="guide1089"
       inkscape:locked="false" />
    <sodipodi:guide
       position="3,6.5925583"
       orientation="1,0"
       id="guide1091"
       inkscape:locked="false" />
    <sodipodi:guide
       position="9.75,5.25"
       orientation="0,1"
       id="guide1093"
       inkscape:locked="false" />
    <sodipodi:guide
       position="9.75,5.25"
       orientation="1,0"
       id="guide1095"
       inkscape:locked="false" />
    <sodipodi:guide
       position="8.4323011,7.5"
       orientation="1,0"
       id="guide1097"
       inkscape:locked="false" />
    <sodipodi:guide
       position="3.5676991,4.3425583"
       orientation="1,0"
       id="guide1099"
       inkscape:locked="false" />
    <sodipodi:guide
       position="3.5676991,4.3425583"
       orientation="0,1"
       id="guide1101"
       inkscape:locked="false" />
    <sodipodi:guide
       position="8.4323011,7.5"
       orientation="0,1"
       id="guide1103"
       inkscape:locked="false" />
    <sodipodi:guide
       position="5.7631965,9.637092"
       orientation="1,0"
       id="guide1107"
       inkscape:locked="false" />
  </sodipodi:namedview>
  <path
     style="fill:#1a1a1a;fill-opacity:1;stroke-width:0.75"
     d="m 9.205418,2.841457 a 4.5,4.5 0 0 0 -6.363961,0 4.5,4.5 0 0 0 0,6.363961 4.5,4.5 0 0 0 6.363961,0 4.5,4.5 0 0 0 0,-6.363961 z M 8.4327105,3.2392045 C 9.4898789,4.2378932 9.9788916,6.2774784 9.0945873,8.2224429 L 7.503597,6.6314527 8.8035275,6.6490615 C 9.3301812,3.2846363 6.2080745,2.3775814 4.3216165,3.4494722 L 3.7912864,2.9191421 C 5.2537911,1.9114923 7.4432667,2.3044941 8.4327105,3.2392045 Z M 2.841457,3.8689715 4.4324472,5.4599618 3.1325173,5.442353 C 2.6058627,8.806778 5.7279699,9.7138333 7.6144278,8.6419423 l 0.53033,0.5303301 C 6.6822533,10.179922 4.4917419,9.7879564 3.5022979,8.8532457 2.4451296,7.854557 1.9571528,5.8139359 2.841457,3.8689715 Z"
     id="path1081"
     inkscape:connector-curvature="0" />
</svg>

<svg width="16" height="16" version="1.1" viewBox="0 0 12 12" xmlns="http://www.w3.org/2000/svg">
<path d="m9.2054 2.8415a4.5 4.5 0 0 0-6.364 0 4.5 4.5 0 0 0 0 6.364 4.5 4.5 0 0 0 6.364 0 4.5 4.5 0 0 0 0-6.364zm-0.77271 0.39775c1.0572 0.99869 1.5462 3.0383 0.66188 4.9832l-1.591-1.591 1.2999 0.017609c0.52665-3.3644-2.5955-4.2715-4.4819-3.1996l-0.53033-0.53033c1.4625-1.0076 3.652-0.61465 4.6414 0.32006zm-5.5913 0.62977 1.591 1.591-1.2999-0.017609c-0.52665 3.3644 2.5955 4.2715 4.4819 3.1996l0.53033 0.53033c-1.4625 1.0076-3.653 0.61568-4.6425-0.31903-1.0572-0.99869-1.5451-3.0393-0.66084-4.9843z" fill="#1a1a1a" stroke-width=".75"/>
</svg>
